Suru++-Ubuntu/apps/symbolic/brave-symbolic.svg

<svg width="16" height="16" version="1.1" xmlns="http://www.w3.org/2000/svg">
 <path d="m7.6303173 14.754941c-0.1724598-0.134551-0.7299855-0.57702-1.2389895-0.983282-0.5090041-0.406261-1.0593789-0.84136-1.2230589-0.966841-0.3801222-0.291401-0.3600756-0.311055 1.0092434-0.99103 1.4063547-0.698267 1.7134148-0.788447 2.2016579-0.646488 0.5255963 0.152693 2.7353868 1.233109 2.7353868 1.337235 0 0.04687-0.330255 0.33411-0.733881 0.638135-0.4036387 0.304252-0.9740677 0.758022-1.2676198 1.008756-0.673663 0.575358-1.0300573 0.848164-1.1081007 0.848164-0.033638 0-0.2022048-0.109984-0.3746268-0.244536zm-3.8700245-3.335811c-0.4363955-0.400705-0.7355262-0.936718-0.7387577-1.323779-0.00117-0.1285037 0.098117-0.4998797 0.220422-0.8248437 0.1223055-0.32504 0.2223874-0.663383 0.2223874-0.752013 0-0.09222-0.5910538-0.723666-1.3820447-1.476397-0.760123-0.7233635-1.438889-1.4251461-1.508368-1.5595083-0.182816-0.3533859-0.03946-0.7741229 0.57465499-1.6855181 0.654081-0.9707717 1.7645136-2.4069165 1.9002742-2.4576378 0.057298-0.022677 0.6287131 0.054803 1.269857 0.1697008l1.1657197 0.2086299 1.2583256-0.3586771 1.2583257-0.3586772 1.2539716 0.3571654 1.2539634 0.3571653 1.199218-0.2124094c0.980028-0.1738583 1.224166-0.1916221 1.335734-0.099402 0.193474 0.1606299 1.817669 2.3409259 2.155971 2.8942488 0.185235 0.3031181 0.287622 0.5915716 0.297449 0.8385259 0.01512 0.376063 0.01361 0.3779528-1.473321 1.8064254-0.818585 0.786406-1.487871 1.48063-1.487296 1.54269 4.61e-4 0.06198 0.101102 0.399307 0.223407 0.749404 0.267024 0.764334 0.2767 1.0398621 0.05197 1.4803661-0.236976 0.464503-0.926468 1.082154-1.208032 1.082154-0.124308 0-0.634461-0.204851-1.133695-0.455471-0.6696235-0.336-1.0658427-0.608201-1.5106326-1.037594-0.3316158-0.3201261-0.6029291-0.6488311-0.6029291-0.7303931 0-0.08164 0.44033-0.558501 0.9785121-1.059893 0.6020938-0.56092 0.9785156-0.978633 0.9785156-1.085821 0-0.096-0.140107-0.537033-0.311357-0.9804469-0.3649892-0.9450705-0.3875038-1.254576-0.1111939-1.5286673 0.1100979-0.1092284 0.8705679-0.4576252 1.6899659-0.7743118 0.819406-0.3167244 1.489909-0.6033638 1.490011-0.6370772 2.34e-4 -0.0948661-0.757391-0.1863307-1.550865-0.1870866-0.603114-7.181e-4 -0.843099 0.0472441-1.507347 0.3016063-0.4475488 0.1715906-0.8382877 0.3797669-0.9013492 0.4805291-0.092863 0.1485355-0.058658 0.4188095 0.2061733 1.6301858 0.359433 1.644095 0.3846992 1.542614-0.4273512 1.717153-0.6056995 0.130016-1.1468485 0.12926-1.7807206-0.0036-0.809915-0.169323-0.7851968-0.06954-0.4257487-1.7139023 0.2643402-1.2090239 0.2989229-1.4819813 0.2066268-1.630101-0.0654236-0.1050709-0.4714545-0.3140788-0.9903005-0.5097071-0.7946985-0.2997165-0.9394204-0.3273071-1.5021165-0.2861102-1.0476132 0.077102-1.4700321 0.1421102-1.4223949 0.2192126 0.024945 0.040441 0.7256504 0.3401574 1.556897 0.6661417 1.5553965 0.6096756 1.7770885 0.7589669 1.7790538 1.1980346 4.611e-4 0.1235906-0.1448315 0.6113008-0.3231118 1.0837039-0.2055307 0.5445918-0.3045543 0.9352068-0.2706898 1.0674518 0.02948 0.114898 0.4750073 0.58114 0.990274 1.036422 0.5522117 0.487975 0.9368542 0.895219 0.9368542 0.991975 0 0.09033-0.300737 0.4450017-0.6683149 0.7882577-0.7074822 0.660699-2.0973317 1.439433-2.5690809 1.439433-0.1536 0-0.3794759-0.131905-0.6475956-0.378066z" style="fill:#808080"/>
</svg>

<svg xmlns="http://www.w3.org/2000/svg" width="16" height="16" version="1.1">
 <path d="M 7.6303173,14.754941 C 7.4578575,14.62039 6.9003318,14.177921 6.3913278,13.771659 5.8823237,13.365398 5.3319489,12.930299 5.1682689,12.804818 4.7881467,12.513417 4.8081933,12.493763 6.1775123,11.813788 7.583867,11.115521 7.8909271,11.025341 8.3791702,11.1673 c 0.5255963,0.152693 2.7353868,1.233109 2.7353868,1.337235 0,0.04687 -0.330255,0.33411 -0.733881,0.638135 -0.4036387,0.304252 -0.9740677,0.758022 -1.2676198,1.008756 -0.673663,0.575358 -1.0300573,0.848164 -1.1081007,0.848164 -0.033638,0 -0.2022048,-0.109984 -0.3746268,-0.244536 z M 3.7602928,11.41913 C 3.3238973,11.018425 3.0247666,10.482412 3.0215351,10.095351 c -0.00117,-0.1285037 0.098117,-0.4998797 0.220422,-0.8248437 0.1223055,-0.32504 0.2223874,-0.663383 0.2223874,-0.752013 0,-0.09222 -0.5910538,-0.723666 -1.3820447,-1.476397 C 1.3221768,6.3187338 0.64341081,5.6169512 0.57393181,5.482589 0.39111581,5.1292031 0.53447181,4.7084661 1.1485868,3.7970709 1.8026678,2.8262992 2.9131004,1.3901544 3.048861,1.3394331 3.106159,1.3167561 3.6775741,1.3942361 4.318718,1.5091339 L 5.4844377,1.7177638 6.7427633,1.3590867 8.001089,1.0004095 9.2550606,1.3575749 10.509024,1.7147402 11.708242,1.5023308 c 0.980028,-0.1738583 1.224166,-0.1916221 1.335734,-0.099402 0.193474,0.1606299 1.817669,2.3409259 2.155971,2.8942488 0.185235,0.3031181 0.287622,0.5915716 0.297449,0.8385259 0.01512,0.376063 0.01361,0.3779528 -1.473321,1.8064254 -0.818585,0.786406 -1.487871,1.48063 -1.487296,1.54269 4.61e-4,0.06198 0.101102,0.399307 0.223407,0.749404 0.267024,0.764334 0.2767,1.0398621 0.05197,1.4803661 -0.236976,0.464503 -0.926468,1.082154 -1.208032,1.082154 -0.124308,0 -0.634461,-0.204851 -1.133695,-0.455471 C 9.8008055,11.005272 9.4045863,10.733071 8.9597964,10.303678 8.6281806,9.9835519 8.3568673,9.6548469 8.3568673,9.5732849 c 0,-0.08164 0.44033,-0.558501 0.9785121,-1.059893 0.6020938,-0.56092 0.9785156,-0.978633 0.9785156,-1.085821 0,-0.096 -0.140107,-0.537033 -0.311357,-0.9804469 C 9.6375488,5.5020535 9.6150342,5.192548 9.8913441,4.9184567 10.001442,4.8092283 10.761912,4.4608315 11.58131,4.1441449 12.400716,3.8274205 13.071219,3.5407811 13.071321,3.5070677 13.071555,3.4122016 12.31393,3.320737 11.520456,3.3199811 10.917342,3.319263 10.677357,3.3672252 10.013109,3.6215874 9.5655602,3.793178 9.1748213,4.0013543 9.1117598,4.1021165 9.0188968,4.250652 9.0531018,4.520926 9.3179331,5.7323023 c 0.359433,1.644095 0.3846992,1.542614 -0.4273512,1.717153 -0.6056995,0.130016 -1.1468485,0.12926 -1.7807206,-0.0036 C 6.2999463,7.2765323 6.3246645,7.3763153 6.6841126,5.731953 6.9484528,4.5229291 6.9830355,4.2499717 6.8907394,4.101852 6.8253158,3.9967811 6.4192849,3.7877732 5.9004389,3.5921449 5.1057404,3.2924284 4.9610185,3.2648378 4.3983224,3.3060347 3.3507092,3.3831367 2.9282903,3.4481449 2.9759275,3.5252473 3.0008725,3.5656883 3.7015779,3.8654047 4.5328245,4.191389 6.088221,4.8010646 6.309913,4.9503559 6.3118783,5.3894236 6.3123394,5.5130142 6.1670468,6.0007244 5.9887665,6.4731275 5.7832358,7.0177193 5.6842122,7.4083343 5.7180767,7.5405793 c 0.02948,0.114898 0.4750073,0.58114 0.990274,1.036422 0.5522117,0.487975 0.9368542,0.895219 0.9368542,0.991975 0,0.09033 -0.300737,0.4450017 -0.6683149,0.7882577 -0.7074822,0.660699 -2.0973317,1.439433 -2.5690809,1.439433 -0.1536,0 -0.3794759,-0.131905 -0.6475956,-0.378066 z" style="fill:#808080"/>
</svg>
